svg/directions-f.svg

<svg xmlns="http://www.w3.org/2000/svg" viewBox="0 0 59 64" enable-background="new 0 0 59 64"><style type="text/css">.st0{fill:#333333;}</style><title>directions-f</title><desc>Created with Sketch.</desc><path class="st0" d="M54 32h-25v-5h22l8-9-8-10h-22v-6c0-1.1-.9-2-2-2s-2 .9-2 2v6h-20c-1.1 0-2 .9-2 2v15c0 1.1.9 2 2 2h20v5h-17l-8 10 8 9h17v11c0 1.1.9 2 2 2s2-.9 2-2v-11h25c1.1 0 2-.9 2-2v-15c0-1.1-.9-2-2-2z"/></svg>

<?xml version="1.0" encoding="utf-8"?>
<!-- Generator: Adobe Illustrator 21.0.0, SVG Export Plug-In . SVG Version: 6.00 Build 0)  -->
<svg version="1.1" id="Layer_1" xmlns="http://www.w3.org/2000/svg" xmlns:xlink="http://www.w3.org/1999/xlink" x="0px" y="0px"
	 viewBox="0 0 59 64" style="enable-background:new 0 0 59 64;" xml:space="preserve">
<style type="text/css">
	.st0{fill:#333333;}
</style>
<title>directions-f</title>
<desc>Created with Sketch.</desc>
<path class="st0" d="M54,32H29v-5h22l8-9L51,8H29V2c0-1.1-0.9-2-2-2c-1.1,0-2,0.9-2,2v6H5c-1.1,0-2,0.9-2,2v15c0,1.1,0.9,2,2,2h20v5
	H8L0,42l8,9h17v11c0,1.1,0.9,2,2,2c1.1,0,2-0.9,2-2V51h19.7H54c1.1,0,2-0.9,2-2V34C56,32.9,55.1,32,54,32z"/>
</svg>
